resources/devices/mic_dpa_1.svg

<?xml version="1.0" encoding="UTF-8" standalone="no"?>
<!-- Created with Inkscape (http://www.inkscape.org/) -->

<svg
   width="15"
   height="30"
   viewBox="0 0 14.999999 30.000001"
   version="1.1"
   id="svg1"
   xml:space="preserve"
   inkscape:version="1.4 (e7c3feb1, 2024-10-09)"
   sodipodi:docname="mic_dpa_1.svg"
   xmlns:inkscape="http://www.inkscape.org/namespaces/inkscape"
   xmlns:sodipodi="http://sodipodi.sourceforge.net/DTD/sodipodi-0.dtd"
   xmlns="http://www.w3.org/2000/svg"
   xmlns:svg="http://www.w3.org/2000/svg"><sodipodi:namedview
     id="namedview1"
     pagecolor="#ffffff"
     bordercolor="#000000"
     borderopacity="0.25"
     inkscape:showpageshadow="2"
     inkscape:pageopacity="0.0"
     inkscape:pagecheckerboard="0"
     inkscape:deskcolor="#d1d1d1"
     inkscape:document-units="mm"
     inkscape:current-layer="layer1" /><defs
     id="defs1" /><g
     inkscape:label="Слой 1"
     inkscape:groupmode="layer"
     id="layer1"
     transform="translate(-3.3543365,-2.4999984)"><path
       style="fill:#000000;stroke-width:1"
       d="m 10.102301,11.673738 c -0.0023,-0.06262 9.27e-4,-0.288053 0.0072,-0.50096 0.02698,-0.909527 0.0072,-0.981274 -0.3855661,-1.3965334 C 9.4431361,9.479293 9.1359476,9.3511015 8.7052009,9.3511015 8.4367579,9.3511015 8.394255,9.3379695 8.2742622,9.2179789 8.0537537,8.9974712 8.1163274,8.7021299 8.3835541,8.7021299 8.5456279,8.6761188 8.7102576,7.6633683 8.3084954,8.0730295 8.1456786,8.2390475 8.1186214,8.2411847 6.2258467,8.2375103 4.458927,8.2340546 4.3237349,7.9907376 4.2432792,7.4550048 4.0944435,6.4639569 4.4196032,5.8704924 5.3369467,5.70775 c 0.250085,0 2.1320452,-0.6440977 2.5049958,-0.5531909 0.097473,0.026915 0.1721247,0.028078 0.1876716,0.00292 0.054315,-0.087882 0.5098466,0.03503 0.5533544,-0.1313476 0.038505,-0.1472433 0.028889,-0.146093 1.6986405,-0.203237 0.569193,-0.019478 0.6769,0.01985 0.779079,0.2844849 0.05933,0.153671 0.930955,0.00166 0.940874,-0.028071 0.03894,-0.1168088 0.286922,-0.1976255 0.572205,-0.1864774 0.839017,0.00968 0.943822,0.6876302 1.112665,1.3386493 l 0.995945,-0.014733 C 16.622032,6.1880513 17.5,6.710907 17.5,7.8947183 c 0,3.8638577 -5.936811,0.3207243 -6.323501,2.8182027 -0.140645,9.701904 -0.05861,9.766578 0.01182,19.468447 h -0.482326 -0.482327 c -0.006,-8.154013 0.104032,-8.052722 -0.121364,-18.507627 z M 15.682057,9.5593387 C 17.308394,9.0455791 17.754387,7.4255147 16.451193,6.765458 15.942792,6.5079565 15.832855,6.4984532 13.912679,6.5460216 l -0.171706,0.00425 c 0.130171,0.3464204 0.184652,0.6108687 -0.01634,0.9002302 -0.536587,0.7724726 -0.983185,0.5248413 -1.73059,0.6443303 -0.302664,0.056781 -0.357593,0.6606779 -0.08609,0.9464427 0.09788,0.1030145 0.112212,0.1507616 0.08889,0.2960225 l -0.02781,0.1731997 0.391696,-0.014893 c 1.012716,-0.038511 2.162454,0.4298249 3.32133,0.063739 z M 10.414838,9.0033319 c 0.229902,-0.080008 0.464453,-0.1247769 0.703101,-0.1341992 0.196963,-0.00778 0.36655,-0.022575 0.376861,-0.032883 0.04612,-0.046121 0.114763,-0.5890661 0.0789,-0.6240775 -0.11447,-0.1117395 -0.275716,-0.095174 -0.424261,0.043589 0,0 -1.8661504,0.1863377 -2.1844703,-0.040326 -0.296193,-0.2546434 -0.1713177,0.3050643 -0.1634419,0.4683954 0.3011317,0.091654 0.6018067,0.1869538 0.8880673,0.3191467 0.3085542,0.147238 0.7252469,3.609e-4 0.7252469,3.609e-4 z"
       id="path1"
       sodipodi:nodetypes="scssssssssssssssscssscccsssscsssscsscssssscscccs" /></g></svg>

<svg xmlns="http://www.w3.org/2000/svg" xml:space="preserve" width="15" height="30">
    <path d="M10.102 11.674c-.002-.063.001-.288.008-.501.026-.91.007-.981-.386-1.397-.28-.297-.588-.425-1.019-.425-.268 0-.31-.013-.43-.133-.221-.22-.159-.516.109-.516.162-.026.326-1.039-.076-.629-.162.166-.19.168-2.082.165-1.767-.004-1.902-.247-1.983-.783-.149-.991.177-1.585 1.094-1.747.25 0 2.132-.644 2.505-.553.097.026.172.028.188.002.054-.087.51.036.553-.13.038-.148.029-.147 1.699-.204.569-.02.677.02.779.284.059.154.93.002.94-.028.04-.117.287-.197.573-.186.839.01.944.687 1.112 1.338l.996-.014c1.94-.029 2.818.494 2.818 1.678 0 3.864-5.937.32-6.324 2.818-.14 9.702-.058 9.766.012 19.468h-.964c-.006-8.154.104-8.052-.122-18.507m5.58-2.115c1.626-.513 2.072-2.133.77-2.794-.51-.257-.62-.267-2.54-.219l-.171.004c.13.347.185.611-.016.9-.537.773-.984.525-1.731.645-.303.057-.358.66-.086.946.098.103.112.151.089.296l-.028.173.392-.014c1.012-.039 2.162.43 3.321.063m-5.267-.556q.345-.12.703-.134c.197-.008.366-.022.377-.033.046-.046.115-.589.079-.624-.115-.112-.276-.095-.425.044 0 0-1.866.186-2.184-.04-.296-.255-.171.304-.163.468.3.091.601.187.888.319.308.147.725 0 .725 0" style="fill:#000;stroke-width:1" transform="translate(-3.354 -2.5)"/>
</svg>
